!!!!SEGMENT: pl-sa--231-a-vi-35--006_anonim--litania-speculum-iustitiae.krn
!!!cenid: 17xx:1401
!!!COM: Anonim
!!!COM-rismID:
!!!CDT:
!!!CNT:
!!!OPR: Litania
!!!OTL: Speculum iustitiae
!!!OMV: 006
!!!PDT:
!!!AGN: Sacred; Mass
!!!SMS-siglum: PL-SA
!!!SMS-shelfmark: 231/A VI 35
!!!SMS-shelfwork: 001-006 M
!!!SMS-variant:
!!!SMS-altvar:
!!!NIFC-rismSourceID: 1001039070
!!!NIFC-islandoraID:
!!!URL-pdf-islandora:
!!!URL-scan: https://bc.bdsandomierz.pl/dlibra/publication/1585/edition/1553/content @EN{Scan on Cyfrowa Biblioteka Diecezjalna w Sandomierzu} @PL{Skany w portalu Cyfrowa Biblioteka Diecezjalna w Sandomierzu}
!!!ONB-nifc: UWAGA: części Litanii: 1. Sinfonia, 2. Kyrie, 3. Pater de caelis, 4. Sancta Maria, 5. Mater amabilis, 6. Speculum iustitiae, 7. Rosa mystica, 8. Salus infirmorum, 9. Regina angelorum, 10. Agnus Dei. Uwaga: wpisać oba teksty.
!!!AIN: 1 bass 2 cor 1 oboe 1 organ 1 soprn 1 tenor 2 violn
!!!key: G
**kern	**dynam	**kern	**kern	**dynam	**kern	**text	**text	**kern	**text	**text	**kern	**text	**text	**kern	**kern	**kern
*part9	*part9	*part8	*part7	*part7	*part6	*part6	*part6	*part5	*part5	*part5	*part4	*part4	*part4	*part3	*part2	*part1
*staff9	*	*staff8	*staff7	*	*staff6	*staff6	*staff6	*staff5	*staff5	*staff5	*staff4	*staff4	*staff4	*staff3	*staff2	*staff1
*I"Fondamento.	*	*I"Violino Secundo.	*I"Violino Primo	*	*I"Basso	*	*	*I"Tenore	*	*	*I"Canto.	*	*	*I"Cornu Secundo ex G.	*I"Cornu Primo ex G..	*I"Oboe Primo
*I'bc	*	*I'vl II	*I'vl I	*	*I'B	*	*	*I'T	*	*	*I'S	*	*	*I'cor II	*I'cor I	*I'ob I
*ICklav	*	*ICstr	*ICstr	*	*ICvox	*	*	*ICvox	*	*	*ICvox	*	*	*ICbras	*ICbras	*ICww
*Iorgan	*	*Ivioln	*Ivioln	*	*Ibass	*	*	*Itenor	*	*	*Isoprn	*	*	*Icor	*Icor	*Ioboe
*clefF4	*	*clefG2	*clefG2	*	*clefF4	*	*	*clefC4	*	*	*clefC1	*	*	*clefG2	*clefG2	*clefG2
*G:	*	*G:	*G:	*	*G:	*	*	*G:	*	*	*G:	*	*	*G:	*G:	*G:
*	*	*	*	*	*	*	*	*	*	*	*	*	*	*ITrd3c5	*ITrd3c5	*
*k[f#]	*	*k[f#]	*k[f#]	*	*k[f#]	*	*	*k[f#]	*	*	*k[f#]	*	*	*k[f#]	*k[f#]	*k[f#]
*M4/4	*	*M4/4	*M4/4	*	*M4/4	*	*	*M4/4	*	*	*M4/4	*	*	*M4/4	*M4/4	*M4/4
*met(c)	*	*met(c)	*met(c)	*	*met(c)	*	*	*met(c)	*	*	*met(c)	*	*	*met(c)	*met(c)	*met(c)
=1	=1	=1	=1	=1	=1	=1	=1	=1	=1	=1	=1	=1	=1	=1	=1	=1
!LO:TX:a:t=Tutti	!	!	!	!	!	!	!	!	!	!	!	!	!	!	!	!
!LO:TX:a:B:t=adagio.	!	!LO:TX:a:B:t=adagio.	!LO:TX:a:B:t=adagio.	!	!LO:TX:a:B:t=adagio.	!	!	!	!	!	!LO:TX:a:t=adagio	!	!	!LO:TX:a:B:t=adagio.	!LO:TX:a:B:t=adagio.	!LO:TX:a:B:t=adagio.
8G\L	.	8.g/L	8.b\L	.	8.G\	Spe-	Je-	8.G\	Spe-	Je-	8.b\	Spe-	Je-	8.g\L	8.b\L	8.b\L
8G\	.	.	.	.	.	.	.	.	.	.	.	.	.	.	.	.
.	.	16a/Jk	16cc\Jk	.	16G\	-cu-	.	16A\	-cu-	.	16cc\	-cu-	.	16a\Jk	16cc\Jk	16cc\Jk
.	.	8qqa/	8qqcc/	.	.	.	.	8qqA/	.	.	.	.	.	8qqa/	8qqcc/	8qqcc/
8G\	.	4b/	4dd\	.	4G\	-lum	-su	4B\	-lum	-su	4dd\	-lum	-su	4b\	4dd\	4dd\
8G\J	.	.	.	.	.	.	.	.	.	.	.	.	.	.	.	.
8G\L	.	8.cc\L	8.ee\L	.	8.G\	Spe-	iu-	8.c\	Spe-	ju-	8.ee\	Spe-	iu-	4cc\	4ee\	8.ee\L
8G\	.	.	.	.	.	.	.	.	.	.	.	.	.	.	.	.
.	.	16a\K	16ff#\Jk	.	16G\	-cu-	.	16A\	-cu-	.	16ff#\	-cu-	.	.	.	16ff#\Jk
8G\	.	8b\	8gg\L	.	8G\	-lum	.	8B\	-lum	-cun-	8gg\	-lum	.	8b\L	8dd\L	8gg\L
8G\J	.	8cc\J	8ee\J	.	8G\	ju-	-cun-	8c\	Ju-	.	8ee\	ju-	cun-	(16b\L	(16gg\L	8ee\J
.	.	.	.	.	.	.	.	.	.	.	.	.	.	16cc\JJ)	16ee\JJ)	.
=2	=2	=2	=2	=2	=2	=2	=2	=2	=2	=2	=2	=2	=2	=2	=2	=2
.	.	8qqb/	8qqdd/	.	.	.	.	8qqB/	.	.	8qqdd/	.	.	8qqb/	8qqdd/	8qqdd/
8d\L	.	4.a/	4.cc\	.	4d\	-sti-	-di-	4.A\	-sti-	-diſ-	4.cc\	-sti-	-dis-	4.a\	4.cc\	4.cc\
8d\	.	.	.	.	.	.	.	.	.	.	.	.	.	.	.	.
8D\	.	.	.	.	4D\	-ti-	-ſsi-	.	.	.	.	.	.	.	.	.
8D\J	.	8a/	8cc\	.	.	.	.	8A\	-ti-	-si-	8cc\	-ti-	-si-	8a\	8cc\	8cc\
8GG/L	.	16g/KL	16b\KL	.	8G\	-ae	-me	8G\	-ae	-me	8b\	-ae	-me	8g\L	8b\L	16b\KL
.	.	8d/	8g\	.	.	.	.	.	.	.	.	.	.	.	.	8g\
8GG/	.	.	.	.	8G\	o-	.	8B\	O-	mi-	8dd\	o-	mi-	8g\	8g\	.
.	.	8g/	8b\	.	.	.	.	.	.	.	.	.	.	.	.	8b\
8GG/	.	.	.	.	8G\	-ra	mi-	8B\	-ra	.	8dd\	-ra	.	8g\	8g\	.
.	.	8b/	8dd\	.	.	.	.	.	.	.	.	.	.	.	.	8dd\
8GG/J	.	.	.	.	8G\	pro	-se-	8B\	pro	-se-	8dd\	pro	-se-	8g\J	8g\J	.
.	.	[16dd/Jk	[16ffn\Jk	.	.	.	.	.	.	.	.	.	.	.	.	[16ffn\Jk
=3	=3	=3	=3	=3	=3	=3	=3	=3	=3	=3	=3	=3	=3	=3	=3	=3
*	*	*	*	*	*2\right	*	*	*2\right	*	*	*2\right	*	*	*	*	*
!	!	!	!	!	!	!	!	!	!	!	!	!	!	!	!	!
8GG/L	.	16dd\LL]	16ff\LL]	.	2G\	no-	-re-	2B\	no-	-re-	2dd\	no-	-re-	8g\L	8g\L	16ff\LL]
.	.	16cc\	16ee\	.	.	.	.	.	.	.	.	.	.	.	.	16ee\
8GG/	.	16b\	16dd\	.	.	.	.	.	.	.	.	.	.	16g\L	16g\L	16dd\
.	.	16a\JJ	16cc\JJ	.	.	.	.	.	.	.	.	.	.	16g\JJ	16g\JJ	16cc\JJ
8GG/	.	16g/LL	16b/LL	.	.	.	.	.	.	.	.	.	.	8g\L	8g\L	16b/LL
.	.	16fn/	16a/	.	.	.	.	.	.	.	.	.	.	.	.	16a/
8GG/J	.	16e/	16g/	.	.	.	.	.	.	.	.	.	.	8g\J	8g\J	16g/
!	!	!	!LO:SIC:s=16fn	!	!	!	!	!	!	!	!	!	!	!	!	!LO:SIC:s=16fn
.	.	16d/JJ	16f#/JJ	.	.	.	.	.	.	.	.	.	.	.	.	16f#/JJ
8C/L	.	16c/KL	16e/KL	.	8C/	-biſ	.	8c\	-biſ	-re	8ee\	-bis	-re	8g\L	8g\L	16e/KL
.	.	8e/	8a/	.	.	.	.	.	.	.	.	.	.	.	.	8a/
8AA/	.	.	.	.	8A\	o-	-re	8c#X\	O-	mi-	8ee\	o-	.	8a\	8a\	.
.	.	8g/	8cc#X/	.	.	.	.	.	.	.	.	.	.	.	.	8cc#X/
8AA/	.	.	.	.	8A\	-ra	mi-	8c#\	-ra	-se-	8ee\	-ra	mi-	8a\	8a\	.
.	.	8cc#X/	8ee/	.	.	.	.	.	.	.	.	.	.	.	.	8ee/
8AA/J	.	.	.	.	8A\	pro	-se-	8c#\	pro	-re-	8ee\	pro	-se-	8a\J	8a\J	.
.	.	[16ee/Jk	[16gg/Jk	.	.	.	.	.	.	.	.	.	.	.	.	[16gg/Jk
=4	=4	=4	=4	=4	=4	=4	=4	=4	=4	=4	=4	=4	=4	=4	=4	=4
!	!	!	!	!	!	!	!	!LO:SIC:s=2c#	!	!	!	!	!	!	!	!
8AA/L	.	16ee\LL]	16gg\LL]	.	2A\	no-	-re-	2c\	no-	-re	2ee\	no-	-re-	8a\L	8a\L	16gg\LL]
.	.	16dd\	16ff#X\	.	.	.	.	.	.	.	.	.	.	.	.	16ff#X\
8AA/	.	16cc#X\	16ee\	.	.	.	.	.	.	.	.	.	.	16a\L	16a\L	16ee\
.	.	16b\JJ	16dd\JJ	.	.	.	.	.	.	.	.	.	.	16a\JJ	16a\JJ	16dd\JJ
!	!	!	!LO:SIC:s=16cc#	!	!	!	!	!	!	!	!	!	!	!	!	!
8AA/	.	16a/LL	16cc\LL	.	.	.	.	.	.	.	.	.	.	8a\L	8a\L	16cc#X\LL
.	.	16g/	16b\	.	.	.	.	.	.	.	.	.	.	.	.	16b\
8AA/J	.	16f#/	16a\	.	.	.	.	.	.	.	.	.	.	8a\J	8a\J	16a\
.	.	16e/JJ	16g\JJ	.	.	.	.	.	.	.	.	.	.	.	.	16g\JJ
8D\L	.	16d/LL	16f#/LL	.	4D\	-biſ	-re	4d\	-biſ	no-	4ff#\	-bis	-re	8d/	8a\	16f#/LL
.	.	16A/	16d/	.	.	.	.	.	.	.	.	.	.	.	.	16d/
8D\	.	16d/	16f#/	.	.	.	.	.	.	.	.	.	.	8r	8r	16f#/
.	.	16f#/JJ	16a/JJ	.	.	.	.	.	.	.	.	.	.	.	.	16a/JJ
8D\	.	4aT/	(4ccnT\	.	8D\	Se-	mi-	8A\	Se-	-biſ	8cc\	Se-	mi-	4a\	4cc\	(4ccnT\
8D\J	.	.	.	.	8D\	-des	-se-	8A\	-des	m	8cc\	-des	-se-	.	.	.
!	!	!	!	!	!	!	!	!LO:LB:g=original	!	!	!	!	!	!	!	!
=5	=5	=5	=5	=5	=5	=5	=5	=5	=5	=5	=5	=5	=5	=5	=5	=5
!	!	!	!LO:TX:t=P:problem=mixed beam	!	!	!	!	!	!	!	!	!	!	!	!	!LO:TX:t=P:problem=mixed beam
8D\L	.	16g/LL	16b\LL)	.	8D\	Sa-	-re-	8.G\	sa-	mii-	8b\	Sa-	-re-	4g\	4b\	16b\LL)
.	.	16B/	16d/	.	.	.	.	.	.	.	.	.	.	.	.	16d/
8D\	.	16d/	16g/	.	8D\	-pi-	-[re]	.	.	.	8b\	-pi-	-re	.	.	16g/
.	.	16g/JJ	16b/JJ	.	.	.	.	16G\	-pi-	-se-	.	.	.	.	.	16b/JJ
8D\	.	(4b\	(4dd\	.	8.D\	-en-	mi-	8B\	-en-	-re-	8.dd\	-en-	mi-	4b\	4dd\	(4dd\
8D\J	.	.	.	.	.	.	.	8B\	-ti-	-re	.	.	.	.	.	.
.	.	.	.	.	16D\	-ti-	-se-	.	.	.	16dd\	-ti-	-se-	.	.	.
!	!	!LO:TX:t=P:problem=mixed beam	!LO:TX:t=P:problem=mixed beam	!	!	!	!	!	!	!	!	!	!	!	!	!
!	!	!	!	!	!LO:LB:g=original	!	!	!	!	!	!	!	!	!	!	!LO:TX:t=P:problem=mixed beam
8D\L	.	16a\LL)	16cc\LL)	.	4D\	-ae	-re-	4A\	-ae	mi-	4cc\	-ae	-re-	4a\	4cc\	16cc\LL)
.	.	16A/	16d/	.	.	.	.	.	.	.	.	.	.	.	.	16d/
8D\	.	16d/	16f#/	.	.	.	.	.	.	.	.	.	.	.	.	16f#/
.	.	16f#/JJ	16a/JJ	.	.	.	.	.	.	.	.	.	.	.	.	16a/JJ
8D\	.	4a/	4cc\	.	4D\	o-	-re	4A\	o-	-se-	4cc\	o-	-re	4a\	4cc\	4cc\
8D\J	.	.	.	.	.	.	.	.	.	.	.	.	.	.	.	.
!	!	!	!	!	!	!	!	!	!	!	!LO:LB:g=original	!	!	!	!	!
=6	=6	=6	=6	=6	=6	=6	=6	=6	=6	=6	=6	=6	=6	=6	=6	=6
8G\L	.	8g\L	8b\L	.	4G\	-ra	no-	4G/	-ra	-re-	4b\	-ra	no-	8g\L	8b\L	8b\L
8G\	.	8b\	8gg\	.	.	.	.	.	.	.	.	.	.	8g\	8b\	8gg\
8B\	.	8b\	8gg\	.	8B\L	pro	.	8G/	pro	-re	4b\	pro	.	8g\	8b\	8gg\
8G\J	.	8b\J	8gg\J	.	8G\J	.	.	8G/	no-	no-	.	.	.	8g\J	8b\J	8gg\J
!	!	!LO:LB:g=original	!	!	!	!	!	!	!	!	!	!	!	!LO:TX:t=P:problem=mixed beam	!	!
!	!	!	!	!	!	!	!	!	!	!	!	!	!	!	!	!
8d\L	.	8g/L	8b/L	.	8d\	no-	.	4F#/	-biſ	-biſ	8b\	no-	.	8g\L	8b/L	8b/L
8D\J	.	8f#/J	8a/J	.	8D\	-biſ	-bis	.	.	.	8a\	-bis	-bis	16d/L	16a\L	8a/J
.	.	.	.	.	.	.	.	.	.	.	.	.	.	16d/JJ	16a\JJ	.
4r	.	4r	4r	.	4r	.	.	4r	.	.	4r	.	.	4d/	4a\	4r
!	!	!	!LO:LB:g=original	!	!	!	!	!	!	!	!	!	!	!LO:LB:g=original	!	!LO:LB:g=original
=7	=7	=7	=7	=7	=7	=7	=7	=7	=7	=7	=7	=7	=7	=7	=7	=7
!	!	!	!	!	!	!	!	!	!	!	!	!	!	! 	! 	!
16r	.	8b\	8gg\	.	4G\	O-	mi-	4B\	O-	mi-	4gg\	o-	mi-	8g`\	8b`\	8gg\
16G\LL	.	.	.	.	.	.	.	.	.	.	.	.	.	.	.	.
16B\	.	8r	8r	.	.	.	.	.	.	.	.	.	.	8r	8r	8r
16d\JJ	.	.	.	.	.	.	.	.	.	.	.	.	.	.	.	.
!	!	!	!	!	!	!	!	!	!	!	!	!	!	! 	! 	!
16r	.	8b\	8gg\	.	4G\	-ra	-se-	4B\	-ra	.	4gg\	-ra	-se-	8g`\	8b`\	8gg\
16E\LL	.	.	.	.	.	.	.	.	.	.	.	.	.	.	.	.
16G\	.	8r	8r	.	.	.	.	.	.	.	.	.	.	8r	8r	8r
16B\JJ	.	.	.	.	.	.	.	.	.	.	.	.	.	.	.	.
!LO:LB:g=original	!	!	!	!	!	!	!	!	!	!	!	!	!	! 	! 	!
16r	.	8b\	8gg\	.	4E\	o-	-re-	4B\	pro	se-	4gg\	o-	-re-	8g`\	8b`\	8gg\
16C\LL	.	.	.	.	.	.	.	.	.	.	.	.	.	.	.	.
16E\	.	8r	8r	.	.	.	.	.	.	.	.	.	.	8r	8r	8r
16G\JJ	.	.	.	.	.	.	.	.	.	.	.	.	.	.	.	.
!	!	!	!	!	!	!	!	!	!	!	!	!	!	! 	! 	!
16r	.	8b\	8gg\	.	4C#X/	-ra	-re	4B\	no-	.	4gg\	-ra	-re	8g`\	8b`\	8gg\
16AA/LL	.	.	.	.	.	.	.	.	.	.	.	.	.	.	.	.
16C#X/	.	8r	8r	.	.	.	.	.	.	.	.	.	.	8r	8r	8r
16E/JJ	.	.	.	.	.	.	.	.	.	.	.	.	.	.	.	.
!	!	!	!	!	!	!	!	!	!	!	!	!	!	!	!LO:LB:g=original	!
=8	=8	=8	=8	=8	=8	=8	=8	=8	=8	=8	=8	=8	=8	=8	=8	=8
4D/	.	4a\	4ff#\	.	4D/	pro	no-	(4A\	-biſ	-re-	(4ff#\	pro	no-	4d/	4a\	4ff#\
*	*	*2\right	*2\right	*	*	*	*	*	*	*	*	*	*	*2\right	*	*2\right
!	!	!	!	!	!	!	!	!	!	!	!	!	!	!	!	!
4GG/	.	2b\	2gg\	.	4GG/	.	.	4B\)	.	-re	4gg\)	.	.	2g\	2b\	2gg\
4D/	.	.	.	.	2D/	no-	.	(4B\	pro	no-	(4gg\	no-	.	.	.	.
4DD/	.	4a\	4ff#\	.	.	.	.	4A\)	no-	.	4ff#\)	.	.	4d/	4a\	4ff#\
=9	=9	=9	=9	=9	=9	=9	=9	=9	=9	=9	=9	=9	=9	=9	=9	=9
!LO:TX:a:t=Solo	!	!	!	!	!	!	!	!	!	!	!	!	!	!	!	!
!LO:TX:a:B:t=All(egr)o	!	!	!	!	!	!	!	!	!	!	!	!	!	!	!	!
!	!	!LO:TX:a:B:t=All(egr)o	!LO:TX:a:B:t=All(egr)o&colon;	!	!	!	!	!	!	!	!	!	!	!	!LO:TX:a:B:t=All(egr)o	!LO:TX:a:B:t=All(egr)o
8GG/L	.	8b\	8gg\	.	4GG/	-biſ	-bis	4B\	-biſ	-biſ	4gg\	-bis	-bis	8g\	8b\	8gg\
8G\	.	4b\	4dd\	.	.	.	.	.	.	.	.	.	.	4b\	4dd\	4dd\
!	!	!	!	!	!LO:TX:a:B:t=All(egr)o	!	!	!	!	!	!LO:TX:a:B:t=All(egr)o	!	!	!	!	!
8d\	.	.	.	.	4r	.	.	4r	.	.	4r	.	.	.	.	.
8D\J	.	8a/	8cc\	.	.	.	.	.	.	.	.	.	.	8a\	8cc\	8cc\
*	*	*Xtuplet	*	*	*	*	*	*	*	*	*	*	*	*	*	*
!	!	!	!LO:TX:t=P:problem= klamra łukowa	!	!	!	!	!	!	!	!	!	!	!	!	!LO:TX:t=P:problem= klamra łukowa
4G\	.	24d/LL	24b/LL	.	2r	.	.	2r	.	.	2r	.	.	4g\	4b\	24b/LL
.	.	24c/	24a/	.	.	.	.	.	.	.	.	.	.	.	.	24a/
.	.	24B/JJ	24g/JJ	.	.	.	.	.	.	.	.	.	.	.	.	24g/JJ
.	.	4B/	4g/	.	.	.	.	.	.	.	.	.	.	.	.	4g/
4r	.	.	.	.	.	.	.	.	.	.	.	.	.	4r	4r	.
.	.	8a/	8ff#\	.	.	.	.	.	.	.	.	.	.	.	.	8ff#\
=10	=10	=10	=10	=10	=10	=10	=10	=10	=10	=10	=10	=10	=10	=10	=10	=10
8r	.	8b/	8gg\	.	1r	.	.	1r	.	.	1r	.	.	8r	8r	8gg\
8G\L	.	4b/	4dd\	.	.	.	.	.	.	.	.	.	.	4b\	4dd\	4dd\
8d\	.	.	.	.	.	.	.	.	.	.	.	.	.	.	.	.
8D\J	.	8a/	8cc\	.	.	.	.	.	.	.	.	.	.	8a\	8cc\	8cc\
!	!	!LO:LB:g=original	!	!	!	!	!	!	!	!	!	!	!	!	!	!
!	!	!	!LO:TX:t=P:problem= klamra łukowa	!	!	!	!	!	!	!	!	!	!	!	!	!LO:TX:t=P:problem= klamra łukowa
4G\	.	24d/LL	24b/LL	.	.	.	.	.	.	.	.	.	.	4g\	4b\	24b/LL
.	.	24c/	24a/	.	.	.	.	.	.	.	.	.	.	.	.	24a/
.	.	24B/JJ	24g/JJ	.	.	.	.	.	.	.	.	.	.	.	.	24g/JJ
.	.	4B/	4g/	.	.	.	.	.	.	.	.	.	.	.	.	4g/
8r	.	.	.	.	.	.	.	.	.	.	.	.	.	4r	4r	.
8BB/	.	8g/	8d/	.	.	.	.	.	.	.	.	.	.	.	.	8d/
=11	=11	=11	=11	=11	=11	=11	=11	=11	=11	=11	=11	=11	=11	=11	=11	=11
!LO:TX:a:t=c	!	!	!LO:TX:t=P:problem=mixed beam	!	!	!	!	!	!	!	!	!	!	!	!	!
8C/L	.	8g/L	8e/L	.	1r	.	.	1r	.	.	1r	.	.	8r	8r	8e/L
8C/	.	(16cc/L	16ee/L	.	.	.	.	.	.	.	.	.	.	8cc\L	8ee\L	(16ee\L
.	.	16a/JJ)	16cc/JJ	.	.	.	.	.	.	.	.	.	.	.	.	16cc\JJ)
8D/	.	(16b/LL	(16dd\LL	.	.	.	.	.	.	.	.	.	.	8b\	8dd\	(16dd\LL
.	.	16g/)	16b\)	.	.	.	.	.	.	.	.	.	.	.	.	16b\)
8D/J	.	(16a/	(16cc\	.	.	.	.	.	.	.	.	.	.	8a\J	8cc\J	(16cc\
.	.	16f#/JJ)	16a\JJ)	.	.	.	.	.	.	.	.	.	.	.	.	16a\JJ)
!LO:TX:t=P:problem=mixed beam	!	!	!	!	!	!	!	!	!	!	!	!	!	!	!	!
8GG/L	.	(16g/LL	16b/LL	.	.	.	.	.	.	.	.	.	.	4g\	4b\	16b/LL
.	.	16f#/J)	16a/J	.	.	.	.	.	.	.	.	.	.	.	.	16a/J
8G\	.	8g/J	8g/J	.	.	.	.	.	.	.	.	.	.	.	.	8g/J
8D\	.	4r	4r	.	.	.	.	.	.	.	.	.	.	4r	4r	4r
8BB\J	.	.	.	.	.	.	.	.	.	.	.	.	.	.	.	.
=12	=12	=12	=12	=12	=12	=12	=12	=12	=12	=12	=12	=12	=12	=12	=12	=12
!	!LO:DY:a:t=pia.	!	!	!LO:DY:a:t=pia.	!	!	!	!	!	!	!LO:TX:a:t=Solo	!	!	!	!	!
8GG/L	p	8r	8r	p	1r	.	.	1r	.	.	8gg\	Cau-	Je-	1r	1r	1r
8G\	.	4b/	4dd\	.	.	.	.	.	.	.	4dd\	.	.	.	.	.
8d\	.	.	.	.	.	.	.	.	.	.	.	.	.	.	.	.
8D\J	.	8a/	8cc\	.	.	.	.	.	.	.	8cc\	-sa	.	.	.	.
*	*	*	*Xtuplet	*	*	*	*	*	*	*	*	*	*	*	*	*
4G\	.	24d/LL	24b/LL	.	.	.	.	.	.	.	24b\LL	no-	.	.	.	.
.	.	24c/	24a/	.	.	.	.	.	.	.	24a\	.	.	.	.	.
.	.	24B/JJ	24g/JJ	.	.	.	.	.	.	.	24g\JJ	.	.	.	.	.
.	.	4B/	4g/	.	.	.	.	.	.	.	4g\	-strae	.	.	.	.
4r	.	.	.	.	.	.	.	.	.	.	.	.	.	.	.	.
.	.	8a/	8ff#\	.	.	.	.	.	.	.	8ff#\	nos-	-su	.	.	.
!	!	!	!LO:LB:g=original	!	!	!	!	!	!	!	!	!	!	!	!	!
=13	=13	=13	=13	=13	=13	=13	=13	=13	=13	=13	=13	=13	=13	=13	=13	=13
8r	.	8b/	8gg\	.	1r	.	.	1r	.	.	8gg\	.	.	1r	1r	1r
8G\L	.	4b/	4dd\	.	.	.	.	.	.	.	4dd\	-trae	cha-	.	.	.
8d\	.	.	.	.	.	.	.	.	.	.	.	.	.	.	.	.
8D\J	.	8a/	8cc\	.	.	.	.	.	.	.	8cc\	lae-	.	.	.	.
*	*	*	*tuplet	*	*	*	*	*	*	*	*	*	*	*	*	*
!	!	!	!LO:TX:t=P:problem= klamra łukowa	!	!	!	!	!	!	!	!	!	!	!	!	!
4G\	.	24d/LL	24b/LL	.	.	.	.	.	.	.	24b\LL	-ti-	-ri-	.	.	.
!	!	!	!	!	!	!	!	!	!	!	!	!	!	!	!	!
.	.	24c/	24a/	.	.	.	.	.	.	.	24a\JJ	.	.	.	.	.
.	.	24B/JJ	24g/JJ	.	.	.	.	.	.	.	24g\	-ti-	-ſsi-	.	.	.
.	.	4B/	4g/	.	.	.	.	.	.	.	4g\	-ae	-me	.	.	.
8r	.	.	.	.	.	.	.	.	.	.	.	.	.	.	.	.
8BB/	.	8g/	8d/	.	.	.	.	.	.	.	8d/	o-	mi-	.	.	.
!	!	!	!	!	!	!	!	!	!	!	!LO:LB:g=original	!	!	!	!	!
=14	=14	=14	=14	=14	=14	=14	=14	=14	=14	=14	=14	=14	=14	=14	=14	=14
!	!	!	!LO:TX:t=P:problem=mixed beam	!	!	!	!	!	!	!	!LO:TX:t=P:problem=mixed beam	!	!	!LO:TX:b:t=Vertatur	!	!
!	!	!	!	!	!	!	!	!	!	!	!	!	!	!	!LO:TX:b:t=Vertatur.	!
8C/L	.	8g/L	8e/L	.	1r	.	.	1r	.	.	8e/L	.	.	1r	1r	1r
8AA/	.	(16cc/L	(16ee/L	.	.	.	.	.	.	.	(16ee\L	.	-se-	.	.	.
.	.	16a/JJ)	16cc/JJ)	.	.	.	.	.	.	.	16cc\JJ)	.	.	.	.	.
8D/	.	(16b/LL	(16dd\LL	.	.	.	.	.	.	.	(16dd\LL	-ra	-re-	.	.	.
.	.	16g/)	16b\)	.	.	.	.	.	.	.	16b\JJ)	.	.	.	.	.
8DD/J	.	(16a/	(16cc\	.	.	.	.	.	.	.	(16cc\LL	pro	-re	.	.	.
.	.	16f#/JJ)	16a\JJ)	.	.	.	.	.	.	.	16a\JJ)	.	.	.	.	.
4GG/	.	(16d/LL	16b/LL	.	.	.	.	.	.	.	(16b\LL	no-	no-	.	.	.
.	.	16c/J)	16a/J	.	.	.	.	.	.	.	16a\JJ)	.	.	.	.	.
.	.	8B/J	8g/J	.	.	.	.	.	.	.	8g\	-bis	-bis	.	.	.
4r	.	16B/LL	16g\LL	.	.	.	.	.	.	.	4r	.	.	.	.	.
.	.	16g/	16b\	.	.	.	.	.	.	.	.	.	.	.	.	.
.	.	16b/	16dd\	.	.	.	.	.	.	.	.	.	.	.	.	.
!	!	!	!	!LO:DY:a:t=for	!	!	!	!	!	!	!	!	!	!	!	!
.	.	16a/JJ	16ff#\JJ	f	.	.	.	.	.	.	.	.	.	.	.	.
!LO:LB:g=original	!	!	!	!	!	!	!	!	!	!	!	!	!	!LO:LB:g=original	!	!
=15	=15	=15	=15	=15	=15	=15	=15	=15	=15	=15	=15	=15	=15	=15	=15	=15
!LO:TX:a:t=Tutti	!	!	!	!	!	!	!	!	!	!	!LO:TX:a:t=Tutti	!	!	!	!	!
4G\	.	4b/	4gg\	.	4G\	cau-	Je-	4B\	Cau-	Je-	4gg\	Cau-	Je-	4g\	4b\	4gg\
4d\	.	4aT/	4ff#t\	.	4d\	-sa	.	4A\	-sa	-su	4ff#\	-sa	.	4d/	4a\	4ff#t\
!	!	!	!LO:TX:t=P:problem=mixed beam	!	!	!	!	!	!	!	!	!	!	!	!	!
!	!	!	!	!	!	!	!	!LO:LB:g=original	!	!	!	!	!	!	!	!
8B\L	.	16b/LL	16gg\LL	.	8B\	no-	.	8B\	no-	Je-	8gg\	no-	.	4g\	4b\	4gg\
.	.	16d/	16g/	.	.	.	.	.	.	.	.	.	.	.	.	.
8G\J	.	16g/	16b/	.	8G\	-strae	su	8B\	-strae	-su	8gg\	-strae	-su	.	.	.
.	.	16b/JJ	16dd/JJ	.	.	.	.	.	.	.	.	.	.	.	.	.
8r	.	(16b/LL	(16gg\LL	.	8r	.	.	8r	.	.	8r	.	.	8r	8r	8r
.	.	16a/)	16ff#\)	.	.	.	.	.	.	.	.	.	.	.	.	.
8d\	.	(16cc/	(16aa\	.	(8d\	nos-	ie-	(8A\	no-	Je-	8ff#\	nos-	Je-	8d/	8a\	8ff#\
.	.	16a/JJ)	16ff#\JJ)	.	.	.	.	.	.	.	.	.	.	.	.	.
=16	=16	=16	=16	=16	=16	=16	=16	=16	=16	=16	=16	=16	=16	=16	=16	=16
!	!	!	!LO:TX:t=P:problem=mixed beam	!	!	!	!	!	!	!	!	!	!	!	!	!
8B\L	.	16b/LL	16gg\LL	.	8B\)	.	.	8B\)	.	.	8gg\	.	.	8g\L	8b\L	4gg\
.	.	16d/	16g/	.	.	.	.	.	.	.	.	.	.	.	.	.
8G\J	.	16g/	16b/	.	8G\	-trae	-su	8B\	-strae	-su	8gg\	-trae	-su	8g\J	8b\J	.
.	.	16b/JJ	16dd/JJ	.	.	.	.	.	.	.	.	.	.	.	.	.
8r	.	(16b/LL	(16gg\LL	.	8r	.	.	8r	.	.	8r	.	.	8r	8r	8r
.	.	16a/)	16ff#\)	.	.	.	.	.	.	.	.	.	.	.	.	.
8d\	.	(16cc/	(16aa\	.	8d\	no-	cla-	8A\	no-	cla-	8ff#\	no-	cla-	8d/	8a\	8ff#\
.	.	16a/JJ)	16ff#\JJ)	.	.	.	.	.	.	.	.	.	.	.	.	.
!	!	!	!	!	!	!	!	!	!	!	!	!	!	!	!	!LO:LB:g=original
8B\L	.	8b/L	8gg\L	.	8B\	-strae	-vi-	8B\	-strae	-vi-	8gg\	-stre	-vi-	8g\L	8b\L	8gg\L
8c\	.	8cc/	8ee\	.	8c\	lae-	-or	8c\	lae-	-or	8ee\	lae-	-or	8cc\	8ee\	8ee\
8d\	.	8b/	8dd\	.	8d\	-ti-	so-	8B\	-ti-	.	8dd\	-ti-	so-	8b\	8dd\	8dd\
8D\J	.	8a/J	8cc\J	.	8D\	-ti-	.	8A\	-ti-	So-	8cc\	-ti-	.	8a\J	8cc\J	8cc\J
!	!	!	!	!	!LO:LB:g=original	!	!	!	!	!	!	!	!	!	!	!
=17	=17	=17	=17	=17	=17	=17	=17	=17	=17	=17	=17	=17	=17	=17	=17	=17
4G\	.	16g/LL	16b/LL	.	4G\	-ae	-le	4G/	-ae	-le	4b\	-ae	-le	4g\	4b\	16b/LL
.	.	16g/	16g/	.	.	.	.	.	.	.	.	.	.	.	.	16g/
.	.	16a/	16a/	.	.	.	.	.	.	.	.	.	.	.	.	16a/
.	.	16b/JJ	16b/JJ	.	.	.	.	.	.	.	.	.	.	.	.	16b/JJ
4r	.	16cc\LL	16cc\LL	.	4r	.	.	4r	.	.	4r	.	.	4r	4r	16cc\LL
.	.	16dd\	16dd\	.	.	.	.	.	.	.	.	.	.	.	.	16dd\
.	.	16ee\	16ee\	.	.	.	.	.	.	.	.	.	.	.	.	16ee\
.	.	16ff#\JJ	16ff#\JJ	.	.	.	.	.	.	.	.	.	.	.	.	16ff#\JJ
8r	.	8gg\L	8gg\L	.	8r	.	.	8r	.	.	8r	.	.	8r	8r	8gg\L
8c\L	.	8cc\	8ee\	.	8c\	lae-	lu-	8c\	lae-	lu-	8ee\	lae-	lu-	8cc\L	8ee\L	8ee\
8d\	.	8b\	8dd\	.	8d\	-ti-	.	8B\	-ti-	.	8dd\	-ti-	.	8b\	8dd\	8dd\
!	!	!	!LO:TX:b:i:t=Vertatur citiſsime.	!	!	!	!	!	!	!	!	!	!	!	!	!
8D\J	.	8a\J	8cc\J	.	8D\	-ti-	.	8A\	-ti-	-na	8cc\	-ti-	.	8a\J	8cc\J	8cc\J
!	!	!	!LO:LB:g=original	!	!	!	!	!	!	!	!	!	!	!	!	!
=18	=18	=18	=18	=18	=18	=18	=18	=18	=18	=18	=18	=18	=18	=18	=18	=18
*	*	*tuplet	*	*	*	*	*	*	*	*	*	*	*	*	*	*
.	.	8qqa/	8qqcc/	.	.	.	.	.	.	.	.	.	.	.	.	8qqcc/
4G\	.	4g/	4b\	.	4G\	-ae	na	4G/	-ae	mi-	4b\	-ae	.	4g\	4b\	4b\
!	!	!	!LO:TX:t=P:problem= klamra łukowa	!	!	!	!	!	!	!	!	!	!	!	!	!LO:TX:t=P:problem= klamra łukowa
8r	.	24b\LL	24dd\LL	.	8G\	Vaſ	mi-	8B\	Vas	-re-	8dd\	Vas	-na	8r	8r	24dd\LL
.	.	24cc\	24ee\	.	.	.	.	.	.	.	.	.	.	.	.	24ee\
.	.	24dd\	24ffn'\JJ	.	.	.	.	.	.	.	.	.	.	.	.	24ffn\JJ
8G\	.	(16ee'\	(16ff'\LL	.	8G\	Spi-	-se-	8d\	Spi-	-se-	8ffn\	Spi-	mi-	16g\LL	16g\LL	(16ff'\LL
.	.	16ee'\JJ)	16ff'\JJ)	.	.	.	.	.	.	.	.	.	.	16g\JJ	16g\JJ	16ff'\JJ)
!LO:TX:t=P:problem=mixed beam	!	!	!	!	!	!	!	!	!	!	!	!	!	!	!	!
!	!	!	!LO:TX:t=P:problem= klamra łukowa	!	!	!	!	!	!	!	!	!	!	!	!	!
!	!	!LO:TX:t=P:problem= klamra łukowa	!	!	!	!	!	!	!	!	!	!	!	!	!	!LO:TX:t=P:problem= klamra łukowa
8c\L	.	24g/LL	24ee\LL	.	8c\	-ri-	-re-	8G/	-ri-	-re-	8ee\	-ri-	-se-	4g\	4g\	24ee\LL
!	!	!LO:TX:t=P:problem=♮ below	!	!	!	!	!	!	!	!	!	!	!	!	!	!
.	.	24fn/	24dd\	.	.	.	.	.	.	.	.	.	.	.	.	24dd\
.	.	24e/J	24cc\J	.	.	.	.	.	.	.	.	.	.	.	.	24cc\J
!	!	! 	! 	!	!	!	!	!	!	!	!	!	!	!	!	! 
8C/J	.	8e`/J	8cc`\J	.	8C/	-tu-	-re	8G/	-tu-	-re	8ee\	-tu-	-re-	.	.	8cc`\J
!	!	!LO:TX:t=P:problem= klamra łukowa	!LO:TX:t=P:problem= klamra łukowa	!	!	!	!	!	!	!	!	!	!	!	!	!LO:TX:t=P:problem= klamra łukowa
8r	.	24b\LL	24dd\LL	.	4G\	-a-	no-	8B\L	-a-	mi-	8dd\L	-a-	-re	8r	8r	24dd\LL
.	.	24cc\	24ee\	.	.	.	.	.	.	.	.	.	.	.	.	24ee\
.	.	24dd\	24ff\	.	.	.	.	.	.	.	.	.	.	.	.	24ff\
8G\	.	(16dd'\	(16ff'\	.	.	.	.	8d\J	.	.	8ff\J	.	.	16g\LL	16g\LL	(16ff'\
.	.	16dd'\JJ)	16ff'\JJ)	.	.	.	.	.	.	.	.	.	.	16g\JJ	16g\JJ	16ff'\JJ)
!	!	!LO:LB:g=original	!	!	!	!	!	!LO:LB:g=original	!	!	!LO:LB:g=original	!	!	!	!	!
!	!	!	!	!	!	!	!	!	!	!	!	!	!	!	!LO:LB:g=original	!
=19	=19	=19	=19	=19	=19	=19	=19	=19	=19	=19	=19	=19	=19	=19	=19	=19
!LO:TX:t=P:problem=mixed beam	!	!	!	!	!	!	!	!	!	!	!	!	!	!	!	!
!	!	!LO:TX:t=P:problem= klamra łukowa	!LO:TX:t=P:problem= klamra łukowa	!	!	!	!	!	!	!	!	!	!	!	!	!
!	!	!	!	!	!	!	!	!	!	!	!	!	!	!	!	!LO:TX:t=P:problem= klamra łukowa
8c\L	.	24g/LL	24ee\LL	.	4C/	-le	-bis	4c\	-le	-se-	4ee\	-le	Je-	4g\	4g\	24ee\LL
.	.	24fn/	24dd\	.	.	.	.	.	.	.	.	.	.	.	.	24dd\
.	.	24e/J	24cc\J	.	.	.	.	.	.	.	.	.	.	.	.	24cc\J
!	!	! 	! 	!	!	!	!	!	!	!	!	!	!	!	!	! 
8C/J	.	8e`/J	8cc`\J	.	.	.	.	.	.	.	.	.	.	.	.	8cc`\J
!	!	!LO:TX:t=P:problem= klamra łukowa	!LO:TX:t=P:problem= klamra łukowa	!	!	!	!	!	!	!	!	!	!	!	!	!
!	!	!	!	!	!	!	!	!	!	!	!	!	!	!	!	!LO:TX:t=P:problem= klamra łukowa
8r	.	24cc#X\LL	24ee\LL	.	4A\	Vas	Je-	8c#X\L	Vas	-re-	8ee\L	Vas	.	8r	8r	24ee\LL
.	.	24dd\	24ff#X\	.	.	.	.	.	.	.	.	.	.	.	.	24ff#X\
.	.	24ee\	24gg\	.	.	.	.	.	.	.	.	.	.	.	.	24gg\
8A\	.	16ee'\	(16gg'\	.	.	.	.	8e\J	.	.	8gg\J	.	.	16a\LL	16a\LL	(16gg'\
.	.	16ee'\JJ	16gg'\JJ)	.	.	.	.	.	.	.	.	.	.	16a\JJ	16a\JJ	16gg'\JJ)
!	!	!LO:TX:t=P:problem= klamra łukowa	!LO:TX:t=P:problem= klamra łukowa	!	!	!	!	!	!	!	!	!	!	!	!	!
!	!	!	!	!	!	!	!	!	!	!	!	!	!	!	!	!LO:TX:t=P:problem= klamra łukowa
8d\L	.	24a/LL	24ff#\LL	.	8d\	ho-	-su	8A\	ho-	-re	8ff#X\	ho-	.	4d/	4a\	24ff#\LL
.	.	24g/	24ee\	.	.	.	.	.	.	.	.	.	.	.	.	24ee\
!	!	!LO:SIC:s=16f#	!	!	!	!	!	!	!	!	!	!	!	!	!	!
.	.	24f/J	24dd\J	.	.	.	.	.	.	.	.	.	.	.	.	24dd\J
!	!	!LO:SIC:s=8f#	!	!	!	!	!	!	!	!	!	!	!	!	!	!
!	!	! 	!	!	!	!	!	!	!	!	!	!	!	!	!	!
8D\J	.	8f`/J	8dd\J	.	8D\	-no-	.	8A\	-no-	.	8ff#\	-no-	.	.	.	8dd\J
!	!	!LO:TX:t=P:problem= klamra łukowa	!LO:TX:t=P:problem= klamra łukowa	!	!	!	!	!	!	!	!	!	!	!	!	!
!	!	!	!	!	!	!	!	!	!	!	!	!	!	!	!	!LO:TX:t=P:problem= klamra łukowa
8r	.	24cc#\LL	24ee\LL	.	8A\	-ra-	splen-	8c#X\	-ra-	no-	8ee\	-ra-	.	8r	8r	24ee\LL
.	.	24dd\	24ff#\	.	.	.	.	.	.	.	.	.	.	.	.	24ff#\
.	.	24ee\	24gg\	.	.	.	.	.	.	.	.	.	.	.	.	24gg\
8A\	.	16ee'\	(16gg'\	.	8A\	-bi-	.	8e\	-bi-	.	8gg\	-bi-	.	16a\LL	16a\LL	16gg'\
.	.	16ee'\JJ	16gg'\JJ)	.	.	.	.	.	.	.	.	.	.	16a\JJ	16a\JJ	16gg'\JJ
=20	=20	=20	=20	=20	=20	=20	=20	=20	=20	=20	=20	=20	=20	=20	=20	=20
!	!	!LO:TX:t=P:problem= klamra łukowa	!LO:TX:t=P:problem= klamra łukowa	!	!	!	!	!	!	!	!	!	!	!	!	!
!	!	!	!	!	!	!	!	!	!	!	!	!	!	!	!	!LO:TX:t=P:problem= klamra łukowa
8d\L	.	24a/LL	24ff#\LL	.	4D\	-le	-di-	4A\	-le	-biſ	4ff#\	-le	-su	4d/	4a\	24ff#\LL
.	.	24g/	24ee\	.	.	.	.	.	.	.	.	.	.	.	.	24ee\
.	.	24f#/J	24dd\J	.	.	.	.	.	.	.	.	.	.	.	.	24dd\J
!	!	! 	! 	!	!	!	!	!	!	!	!	!	!	!	!	! 
8D\J	.	8f#`/J	8dd`\J	.	.	.	.	.	.	.	.	.	.	.	.	8dd`\J
!	!	!LO:TX:t=P:problem= klamra łukowa	!LO:TX:t=P:problem= klamra łukowa	!	!	!	!	!	!	!	!	!	!	!	!	!
!	!	!	!	!	!	!	!	!	!	!	!	!	!	!	!	!LO:TX:t=P:problem= klamra łukowa
8r	.	24dd#X\LL	24ff#\LL	.	4B\	o-	.	4d#X\	O-	Je-	4ff#\	o-	splen-	8r	8r	24ff#\LL
.	.	24ee\	24gg\	.	.	.	.	.	.	.	.	.	.	.	.	24gg\
.	.	24ff#\	24aa\	.	.	.	.	.	.	.	.	.	.	.	.	24aa\
8B\	.	16ff#'\	(16aa'\	.	.	.	.	.	.	.	.	.	.	16B/LL	16B/LL	16aa'\
.	.	16ff#'\JJ	16aa'\JJ)	.	.	.	.	.	.	.	.	.	.	16B/JJ	16B/JJ	16aa'\JJ
!	!	!LO:TX:t=P:problem= klamra łukowa	!LO:TX:t=P:problem= klamra łukowa	!	!	!	!	!	!	!	!	!	!	!	!	!
!	!	!	!	!	!	!	!	!	!	!	!	!	!	!	!	!
8e\L	.	24b/LL	24gg\LL	.	8e\	-ra	-di-	8B\	-ra	-su	8gg\	-ra	-[[d]]-	4B/	4B/	24gg\LL
.	.	24a/	24ff#\	.	.	.	.	.	.	.	.	.	.	.	.	24ff#\
.	.	24g/J	24ee\J	.	.	.	.	.	.	.	.	.	.	.	.	24ee\J
!	!	! 	! 	!	!	!	!	!	!	!	!	!	!	!	!	! 
8E\J	.	8g`/J	8ee`\J	.	8E\	pro	or	8B\	pro	splen-	8gg\	pro	.	.	.	8ee`\J
!	!	!LO:TX:t=P:problem= klamra łukowa	!LO:TX:t=P:problem= klamra łukowa	!	!	!	!	!	!	!	!	!	!	!	!	!
!	!	!	!	!	!	!	!	!	!	!	!	!	!	!	!	!LO:TX:t=P:problem= klamra łukowa
8r	.	24dd#\LL	24ff#\LL	.	4B\	no-	.	4d#X\	no-	-di-	4ff#\	no-	-dor	8r	8r	24ff#\LL
.	.	24ee\	24gg\	.	.	.	.	.	.	.	.	.	.	.	.	24gg\
.	.	24ff#\	24aa\	.	.	.	.	.	.	.	.	.	.	.	.	24aa\
8B\	.	16ff#'\	(16aa'\	.	.	.	.	.	.	.	.	.	.	16B/LL	16B/LL	16aa'\
.	.	16ff#'\JJ	16aa'\JJ)	.	.	.	.	.	.	.	.	.	.	16B/JJ	16B/JJ	16aa'\JJ
!	!	!	!	!	!	!	!	!	!	!	!	!	!	!	!	!LO:LB:g=original
=21	=21	=21	=21	=21	=21	=21	=21	=21	=21	=21	=21	=21	=21	=21	=21	=21
8e\L	.	8ee\L	(16gg\LL	.	8E\	-biſ	sta-	8B\	-biſ	-di-	8gg\	-bis	ste-	4B/	4B/	(16gg\LL
.	.	.	16ee\J)	.	.	.	.	.	.	.	.	.	.	.	.	16ee\J)
!	!	!	!	!	!	!	!	!	!	!	!	!	!	!	!	! 
8E\	.	8ee\	8bb\J	.	8E\	pro	.	8B\	pro	-or	8gg\	pro	.	.	.	8bb`\J
8A\	.	8ee\	16aa\LL	.	8A\L	no-	.	(8A\L	no-	Stel-	(8ff#\L	no-	.	4r	4r	16aa\LL
.	.	.	16gg\	.	.	.	.	.	.	.	.	.	.	.	.	16gg\
8A#X\J	.	8ccn\J	16ff#\	.	8A#X\J	.	.	8G\J)	.	.	8ee\J)	.	.	.	.	16ff#\
.	.	.	16ee\JJ	.	.	.	.	.	.	.	.	.	.	.	.	16ee\JJ
!	!	!	!LO:TX:t=P:problem=mixed beam	!	!	!	!	!	!	!	!	!	!	!	!	!
.	.	8qqg/	.	.	.	.	.	.	.	.	.	.	.	.	.	.
8B\L	.	16f#/LL	16dd#X\LL	.	4B\	-bis	-lis	4F#/	-biſ	-lis	4dd#X\	-bis	-lis	8r	8r	4dd#X\
.	.	16B/	16B/	.	.	.	.	.	.	.	.	.	.	.	.	.
8BB/	.	16B/	16B/	.	.	.	.	.	.	.	.	.	.	16B/LL	16B/LL	.
.	.	16B/JJ	16B/JJ	.	.	.	.	.	.	.	.	.	.	16B/JJ	16B/JJ	.
8BB/	.	16B/LL	16B/LL	.	4r	.	.	4r	.	.	4r	.	.	8B/L	8B/L	4r
.	.	16B/	16B/	.	.	.	.	.	.	.	.	.	.	.	.	.
8BB/J	.	16B/	16B/	.	.	.	.	.	.	.	.	.	.	8B/J	8B/J	.
.	.	16B/JJ	16B/JJ	.	.	.	.	.	.	.	.	.	.	.	.	.
!LO:LB:g=original	!	!	!LO:LB:g=original	!	!	!	!	!	!	!	!	!	!	!LO:LB:g=original	!	!
=22	=22	=22	=22	=22	=22	=22	=22	=22	=22	=22	=22	=22	=22	=22	=22	=22
!	!	!LO:TX:t=P:problem=mixed beam	!	!	!	!	!	!	!	!	!	!	!	!	!	!
8BB/L	.	8B/L	8B/L	.	8r	.	.	8r	.	.	8r	.	.	4B/	4B/	8r
8BB/	.	(8ff#\	(8aa\	.	8B\	O-	mi-	(8A/L	O-	mi-	(8ff#\L	o-	mi-	.	.	(8aa\L
8BB/	.	8ee\	8gg\	.	4B\	.	.	8G/	.	.	8ee\	.	.	4r	4r	8gg\
8BB/J	.	8dd#X\J)	8ff#\J)	.	.	.	.	8F#/J)	.	.	8dd#X\J)	.	.	.	.	8ff#\J)
!	!	!LO:TX:t=P:problem=mixed beam	!LO:TX:t=P:problem=mixed beam	!	!	!	!	!	!	!	!	!	!	!	!	!
8BB/L	.	16ee\LL	16gg\LL	.	4B\	-ra	-se-	4G/	-ra	-se-	4ee\	-ra	-se-	8r	8r	4gg\
.	.	16B/	16B/	.	.	.	.	.	.	.	.	.	.	.	.	.
8BB/	.	16B/	16B/	.	.	.	.	.	.	.	.	.	.	16B/LL	16B/LL	.
.	.	16B/JJ	16B/JJ	.	.	.	.	.	.	.	.	.	.	16B/JJ	16B/JJ	.
8BB/	.	16B/LL	16B/LL	.	4r	.	.	4r	.	.	4r	.	.	8B/L	8B/L	4r
.	.	16B/	16B/	.	.	.	.	.	.	.	.	.	.	.	.	.
8BB/J	.	16B/	16B/	.	.	.	.	.	.	.	.	.	.	8B/J	8B/J	.
.	.	16B/JJ	16B/JJ	.	.	.	.	.	.	.	.	.	.	.	.	.
!	!	!	!	!	!LO:LB:g=original	!	!	!LO:LB:g=original	!	!	!	!	!	!	!	!
=23	=23	=23	=23	=23	=23	=23	=23	=23	=23	=23	=23	=23	=23	=23	=23	=23
!	!	!	!	!	!	!	!	!	!	!	!	!	!	!	!	!
8BB/L	.	8B/L	8B/L	.	8r	.	.	8r	.	.	8r	.	.	4B/	4B/	8r
8BB/	.	(8gg\	(8bb\	.	8B\	pro	-re-	8B\	pro	-re-	8gg\	pro	-re-	.	.	(8bb\L
8BB/	.	8ff#\	8aa\	.	4B\	no-	.	8A/L	no-	-re	8ff#\L	no-	.	4r	4r	8aa\
8BB/J	.	8ee\J)	8gg\J)	.	.	.	.	8G/J	.	.	8ee\J	.	.	.	.	8gg\J)
8BB/L	.	8dd#X\	8ff#\	.	8B\	-biſ	.	8F#/	-bis	no-	8dd#X\	-bis	-re	8r	8r	8ff#\
8BB/	.	4ff#\	4aa\	.	8BB/L	o-	-re-	4A/	O-	.	4ff#\	o-	mi-	16B/LL	16B/LL	4aa\
.	.	.	.	.	.	.	.	.	.	.	.	.	.	16B/JJ	16B/JJ	.
8C#X/	.	.	.	.	8C#X/J	.	.	.	.	.	.	.	.	8B/L	8B/L	.
8D#X/J	.	(16ee\LL	(16gg\LL	.	8D#X/	-ra	.	16G/LL	-ra	-biſ	(16ee\LL	-ra	-se-	8B/J	8B/J	(16gg\LL
.	.	16dd#\JJ)	16ff#\JJ)	.	.	.	.	16F#/JJ	.	.	16dd#X\JJ)	.	.	.	.	16ff#\JJ)
!	!	!LO:LB:g=original	!	!	!	!	!	!	!	!	!	!	!	!	!	!
=24	=24	=24	=24	=24	=24	=24	=24	=24	=24	=24	=24	=24	=24	=24	=24	=24
8E\L	.	(16b/LL	(16gg\LL	.	8E\L	o-	-re	8G\L	O-	Je-	8ee\L	o-	-re-	4B/	4B/	(16gg\LL
.	.	16a/)	16ff#\)	.	.	.	.	.	.	.	.	.	.	.	.	16ff#\)
8F#\	.	(16g/	(16ee\	.	8F#\J	.	.	8A\J	.	.	8dd#X\J	.	.	.	.	(16ee\
.	.	16f#/JJ)	16dd#X\JJ)	.	.	.	.	.	.	.	.	.	.	.	.	16dd#X\JJ)
!	!	!	!	!	!	!	!	!	!	!	!	!	!	!	!	!LO:TX:t=P:problem=mixed beam
8G\	.	8g/L	8ee\L	.	8G\	-ra	.	8B\	-ra	-su	8ee\	-ra	-re	4r	4r	8ee\L
8A\J	.	8f#/J	8a/J	.	8A\	pro	.	8c\	pro	ad-	8a\	pro	.	.	.	8a\J
!	!	!	!	!	!	!	!	!	!	!	!LO:LB:g=original	!	!	!	!	!
4B\	.	4e/	4g/	.	4B\	no-	no-	4E/	no-	-mi-	4g/	no-	no-	4r	4r	4g/
4BB/	.	4d#Xt/	4f#t/	.	4BB/	-biſ	.	4D#X/	-bis	-ra-	4f#/	-bis	.	8B/L	8B/L	4f#t/
.	.	.	.	.	.	.	.	.	.	.	.	.	.	16B/L	16B/L	.
.	.	.	.	.	.	.	.	.	.	.	.	.	.	16B/JJ	16B/JJ	.
=25	=25	=25	=25	=25	=25	=25	=25	=25	=25	=25	=25	=25	=25	=25	=25	=25
!	!	!	!	!	!	!	!	!	!	!	!	!	!	!	! 	!
4E\	.	4g/	4e/ 4b 4ee	.	4E\	Vaſ	-bis	4G/	Vas	-bi-	4ee\	Vas	-bis	4B/	4B/	4ee\
4B\	.	4f#/	4dd#Xt\	.	4B\	in	.	4F#/	in	-liſ	4dd#X\	in	Je-	4r	4r	4dd#X\
!	!	!	!	!	!	!	!	!	!	!	!	!	!	!	!	!
8G\L	.	16g/LL	16ee\LL	.	(8G\L	Si-	ie-	4G/	Si-	Je-	4ee\	Si-	-su	4r	4r	4ee\
.	.	16B/	16e/	.	.	.	.	.	.	.	.	.	.	.	.	.
8E\J	.	16e/	16g/	.	8E\J)	.	.	.	.	.	.	.	.	.	.	.
.	.	16g/JJ	16b/JJ	.	.	.	.	.	.	.	.	.	.	.	.	.
8r	.	(16g/LL	(16ee\LL	.	8G\	-dne	-su	8G/	-gne	.	8ee\	-gne	a-	8r	8r	8r
.	.	16f#/)	16dd#X\)	.	.	.	.	.	.	.	.	.	.	.	.	.
8B\	.	(16a/	(16ff#\	.	8B\	de-	ad-	8F#/	de-	-su	8dd#X\	de-	-dmi-	16B/LL	16B/LL	8dd#X\
.	.	16f#/JJ)	16dd#\JJ)	.	.	.	.	.	.	.	.	.	.	16B/JJ	16B/JJ	.
=26	=26	=26	=26	=26	=26	=26	=26	=26	=26	=26	=26	=26	=26	=26	=26	=26
!	!	!	!	!	!	!	!	!	!	!	!	!	!	!	!	!
8G\L	.	16g/LL	16ee\LL	.	8G\L	-vo-	-mi-	4.G/	-vo-	de-	4.ee\	-vo-	-ra-	4B/	4B/	4ee\
.	.	16B/	16e/	.	.	.	.	.	.	.	.	.	.	.	.	.
8E\J	.	16e/	16g/	.	8E\J	.	.	.	.	.	.	.	.	.	.	.
.	.	16g/JJ	16b/JJ	.	.	.	.	.	.	.	.	.	.	.	.	.
8r	.	(16g/LL	(16ee\LL	.	8G\	.	-ra-	.	.	.	.	.	.	8r	8r	8r
.	.	16f#/)	16dd#X\)	.	.	.	.	.	.	.	.	.	.	.	.	.
8B\	.	(16a/	(16ff#\	.	8B\	-ti-	.	8F#/	-ti-	-lec-	8dd#X\	-ti-	.	16B/LL	16B/LL	8dd#X\
.	.	16f#/JJ)	16dd#\JJ)	.	.	.	.	.	.	.	.	.	.	16B/JJ	16B/JJ	.
!LO:TX:t=P:problem=mixed beam	!	!	!	!	!	!	!	!	!	!	!	!	!	!	!	!
8G\L	.	8g/L	8ee\L	.	8G\L	-o-	.	8G/L	-o-	-ta-	8ee\L	-o-	.	4B/	4B/	8ee\L
8A\	.	8a/	8ccn\	.	8A\	.	.	8A/	.	.	(8cc\	.	.	.	.	8ccn\
8B\	.	8g/	8b\	.	8B\	.	.	8G/	.	.	8b\	.	.	8r	8r	8b\
8BB\J	.	8f#/J	8a\J	.	8BB/J	.	.	8F#/J	.	.	8a\J)	.	.	16B/LL	16B/LL	8a\J
.	.	.	.	.	.	.	.	.	.	.	.	.	.	16B/JJ	16B/JJ	.
!	!	!	!	!	!	!	!	!	!	!	!	!	!	!	!LO:LB:g=original	!
=27	=27	=27	=27	=27	=27	=27	=27	=27	=27	=27	=27	=27	=27	=27	=27	=27
8E\L	.	(16e/LL	(16g/LL	.	8E\	.	-bi-	16E/LL	.	-bi-	16g/LL	.	-bi-	4B/	4B/	16g/LL
.	.	16d#X/J)	16f#/J)	.	.	.	.	16D#X/JJ	.	.	16f#/JJ	.	.	.	.	16f#/J
8E\J	.	8e/J	8e/J	.	8E\	-nis	-lis	8E/	-nis	-lis	8e/	-nis	-lis	.	.	8e/J
16D/LL	.	4r	4r	.	4r	.	.	4r	.	.	4r	.	.	4r	4r	4r
!LO:TX:t=P:problem=♮ below	!	!	!	!	!	!	!	!	!	!	!	!	!	!	!	!
16Cn/	.	.	.	.	.	.	.	.	.	.	.	.	.	.	.	.
16BB/	.	.	.	.	.	.	.	.	.	.	.	.	.	.	.	.
16AA/JJ	.	.	.	.	.	.	.	.	.	.	.	.	.	.	.	.
!	!	!	!	!	!	!	!	!LO:LB:g=original	!	!	!	!	!	!	!	!
4GG/	.	4b\	4gg\	.	4G\	Vas	ie-	4B\	Vas	mi-	4gg\	Vas	Je-	4g\	4b\	4gg\
4d\	.	4aT\	4ff#t\	.	4d\	in	-su	4A\	in	.	4ff#\	in	-su	4d/	4a\	4ff#t\
!	!	!	!LO:LB:g=original	!	!	!	!	!	!	!	!	!	!	!	!	!LO:LB:g=original
=28	=28	=28	=28	=28	=28	=28	=28	=28	=28	=28	=28	=28	=28	=28	=28	=28
!	!	!	!LO:TX:t=P:problem=mixed beam	!	!	!	!	!	!	!	!	!	!	!	!	!
8B\L	.	16b/LL	16gg\LL	.	8B\	Si-	de-	8B\	Si-	-se-	8gg\	Si-	de-	4g\	4b\	4gg\
.	.	16d/	16g/	.	.	.	.	.	.	.	.	.	.	.	.	.
8G\J	.	16g/	16b/	.	8G\	-gne	-le-	8B\	-gne	.	8gg\	-gne	-le-	.	.	.
.	.	16b/JJ	16dd/JJ	.	.	.	.	.	.	.	.	.	.	.	.	.
8r	.	(16b/LL	(16gg\LL	.	8r	.	.	8r	.	.	8r	.	.	8r	8r	8r
.	.	16a/)	16ff#\)	.	.	.	.	.	.	.	.	.	.	.	.	.
8d\	.	(16cc/	(16aa\	.	8d\	de-	-cta-	8A\	de-	-re-	8ff#\	de-	-cta-	8d/	8a\	8ff#\
.	.	16a/JJ)	16ff#\JJ)	.	.	.	.	.	.	.	.	.	.	.	.	.
!	!	!	!LO:TX:t=P:problem=mixed beam	!	!	!	!	!	!	!	!	!	!	!	!	!
!	!	!	!	!	!LO:LB:g=original	!	!	!	!	!	!	!	!	!	!	!
8B\L	.	16b/LL	16gg\LL	.	8B\L	-vo-	.	4.B\	-vo-	-re	4.gg\	-vo-	.	8g\L	8b\L	4gg\
.	.	16d/	16g/	.	.	.	.	.	.	.	.	.	.	.	.	.
8G\	.	16g/	16b/	.	8G\J	.	.	.	.	.	.	.	.	8g\J	8b\J	.
.	.	16b/JJ	16dd/JJ	.	.	.	.	.	.	.	.	.	.	.	.	.
8B\	.	(16b/LL	(16gg\LL	.	8B\	.	.	.	.	.	.	.	.	8r	8r	8r
.	.	16a/)	16ff#\)	.	.	.	.	.	.	.	.	.	.	.	.	.
8d\J	.	(16cc/	(16aa\	.	8d\	-ti-	.	8A\	-ti-	no-	8ff#\	-ti-	.	8d/	8a\	8ff#\
.	.	16a/JJ)	16ff#\JJ)	.	.	.	.	.	.	.	.	.	.	.	.	.
!LO:LB:g=original	!	!	!	!	!	!	!	!	!	!	!	!	!	!	!	!
=29	=29	=29	=29	=29	=29	=29	=29	=29	=29	=29	=29	=29	=29	=29	=29	=29
8B\L	.	8b\L	8gg\L	.	8B\L	-o-	.	8B\L	-o-	-biſ	8gg\L	-o-	.	8g\L	8b\L	8gg\L
8c\	.	8cc\	8ee\	.	8c\	.	.	8c\	.	.	(8ee\	.	.	8cc\	8ee\	8ee\
8d\	.	8b\	8dd\	.	8d\	.	.	8B\	.	.	8dd\	.	.	8b\	8dd\	8dd\
8D\J	.	8a\J	8cc\J	.	8D\J	.	.	8A\J	.	.	8cc\J)	.	.	8a\J	8cc\J	8cc\J
!LO:TX:t=P:problem=mixed beam	!	!	!	!	!	!	!	!	!	!	!	!	!	!	!	!
8GG/L	.	16g/LL	16b/LL	.	8G\	.	-bi-	16G/LL	.	no-	16b\LL	.	-bi-	8g\L	8b\L	16b/LL
.	.	16f#/J	16a/J	.	.	.	.	16F#/JJ	.	.	16a\JJ	.	.	.	.	16a/J
8G\	.	8g/J	8g/J	.	8G\	-nis	-lis	8G/	-nis	-biſ	8g\	-nis	-lis	16g\L	16b\L	8g/J
.	.	.	.	.	.	.	.	.	.	.	.	.	.	16g\JJ	16b\JJ	.
8D\	.	4r	4r	.	4r	.	.	4r	.	.	4r	.	.	8g\L	8b\L	4r
8BB\J	.	.	.	.	.	.	.	.	.	.	.	.	.	8g\J	8b\J	.
!	!	!LO:LB:g=original	!	!	!	!	!	!	!	!	!	!	!	!LO:LB:g=original	!	!
=30	=30	=30	=30	=30	=30	=30	=30	=30	=30	=30	=30	=30	=30	=30	=30	=30
8GG/L	.	16g/LL	16g/LL	.	2G\	O-	mi-	4B\	O-	mi-	4dd\	o-	mi-	4g\	4b\	8dd\L
.	.	16g/	16g/	.	.	.	.	.	.	.	.	.	.	.	.	.
8GG/	.	16g/	16g/	.	.	.	.	.	.	.	.	.	.	.	.	8dd\J
.	.	16g/JJ	16g/JJ	.	.	.	.	.	.	.	.	.	.	.	.	.
8GG/	.	16dd\LL	16ffn\LL	.	.	.	.	4d\	.	.	4ffn\	.	.	4r	4r	8ffn\L
.	.	16dd\	16ff\	.	.	.	.	.	.	.	.	.	.	.	.	.
8GG/J	.	16dd\	16ff\	.	.	.	.	.	.	.	.	.	.	.	.	8ff\J
.	.	16dd\JJ	16ff\JJ	.	.	.	.	.	.	.	.	.	.	.	.	.
16GG/LL	.	2dd\	[2ff\	.	2G\	-ra	-se-	2d\	-ra	-se-	2ff\	-ra	-se-	8g\L	8b\L	[2ff\
16AA/	.	.	.	.	.	.	.	.	.	.	.	.	.	.	.	.
16BB/	.	.	.	.	.	.	.	.	.	.	.	.	.	16g\L	16b\L	.
16C/JJ	.	.	.	.	.	.	.	.	.	.	.	.	.	16g\JJ	16b\JJ	.
16D\LL	.	.	.	.	.	.	.	.	.	.	.	.	.	8g\L	8b\L	.
16E\	.	.	.	.	.	.	.	.	.	.	.	.	.	.	.	.
16F#\	.	.	.	.	.	.	.	.	.	.	.	.	.	8g\J	8b\J	.
16G\JJ	.	.	.	.	.	.	.	.	.	.	.	.	.	.	.	.
=31	=31	=31	=31	=31	=31	=31	=31	=31	=31	=31	=31	=31	=31	=31	=31	=31
!	!	!	!	!	!	!	!	!	!	!	!LO:SIC:s=4ffn	!	!	!	!	!
8GG/L	.	16dd\LL	16ff\LL]	.	4G\	pro	-re-	4d\	pro	.	4ff#\	pro	-ra-	4g\	4b\	16ff\LL]
.	.	16cc\	16ee\	.	.	.	.	.	.	.	.	.	.	.	.	16ee\
8GG/	.	16b\	16dd\	.	.	.	.	.	.	.	.	.	.	.	.	16dd\
.	.	16a\JJ	16cc\JJ	.	.	.	.	.	.	.	.	.	.	.	.	16cc\JJ
!	!	!	!	!	!	!	!	!	!	!	!LO:SIC:s=4ffn	!	!	!	!	!
8GG/	.	16g/LL	16b/LL	.	4G\	no-	-re	4d\	no-	-re-	4ff#\	no-	-re	8r	8r	16b/LL
.	.	16fn/	16a/	.	.	.	.	.	.	.	.	.	.	.	.	16a/
8GG/J	.	16e/	16g/	.	.	.	.	.	.	.	.	.	.	16g\LL	16g\LL	16g/
!	!	!	!LO:SIC:s=16fn	!	!	!	!	!	!	!	!	!	!	!	!	!LO:SIC:s=16fn
.	.	16d/JJ	16f#/JJ	.	.	.	.	.	.	.	.	.	.	16g\JJ	16g\JJ	16f#/JJ
4C/	.	16c/LL	16e/LL	.	4C/	-biſ	nobis	4c\	-bis	-re	4ee\	-bis	nobis	4g\	4g\	4e/
.	.	16c/	16c/	.	.	.	.	.	.	.	.	.	.	.	.	.
.	.	16e/	16e/	.	.	.	.	.	.	.	.	.	.	.	.	.
.	.	16g/JJ	16g/JJ	.	.	.	.	.	.	.	.	.	.	.	.	.
4r	.	4cc\	4cc\	.	4r	.	.	4r	.	.	4r	.	.	4r	4r	4r
=32	=32	=32	=32	=32	=32	=32	=32	=32	=32	=32	=32	=32	=32	=32	=32	=32
8AA/L	.	16a\LL	16a\LL	.	2A\	O-	mi-	4c#X\	O-	mi-	4ee\	o-	mi-	4a\	4a\	8ee\L
.	.	16a\	16a\	.	.	.	.	.	.	.	.	.	.	.	.	.
8AA/	.	16a\	16a\	.	.	.	.	.	.	.	.	.	.	.	.	8ee\
.	.	16a\JJ	16a\JJ	.	.	.	.	.	.	.	.	.	.	.	.	.
8AA/	.	16ee\LL	16gg\LL	.	.	.	.	4e\	.	-se-	4gg\	.	.	4r	4r	8gg\
.	.	16ee\	16gg\	.	.	.	.	.	.	.	.	.	.	.	.	.
8AA/J	.	16ee\	16gg\	.	.	.	.	.	.	.	.	.	.	.	.	8gg\J
.	.	16ee\JJ	16gg\JJ	.	.	.	.	.	.	.	.	.	.	.	.	.
16AA/LL	.	2ee\	2gg\	.	2A\	-ra	-se-	2e\	-ra	-rere	2gg\	-ra	-se-	8a\L	8a\L	2gg\
16BB/	.	.	.	.	.	.	.	.	.	.	.	.	.	.	.	.
16C#X/	.	.	.	.	.	.	.	.	.	.	.	.	.	16a\L	16a\L	.
16D/JJ	.	.	.	.	.	.	.	.	.	.	.	.	.	16a\JJ	16a\JJ	.
16E\LL	.	.	.	.	.	.	.	.	.	.	.	.	.	8a\L	8a\L	.
16F#\	.	.	.	.	.	.	.	.	.	.	.	.	.	.	.	.
16G#X\	.	.	.	.	.	.	.	.	.	.	.	.	.	8a\J	8a\J	.
16A\JJ	.	.	.	.	.	.	.	.	.	.	.	.	.	.	.	.
!	!	!	!	!	!	!	!	!LO:LB:g=original	!	!	!LO:LB:g=original	!	!	!	!	!
=33	=33	=33	=33	=33	=33	=33	=33	=33	=33	=33	=33	=33	=33	=33	=33	=33
8AA/L	.	16ee\LL	16gg\LL	.	4A\	pro	-re-	4e\	pro	no-	4gg\	pro	-re-	4a\	4a\	16gg\LL
.	.	16dd\	16ff#X\	.	.	.	.	.	.	.	.	.	.	.	.	16ff#X\
8AA/	.	16cc#X\	16ee\	.	.	.	.	.	.	.	.	.	.	.	.	16ee\
.	.	16b\JJ	16dd\JJ	.	.	.	.	.	.	.	.	.	.	.	.	16dd\JJ
8AA/	.	16a/LL	16cc#X/LL	.	4A\	no-	-re	4e\	no-	.	4gg\	no-	-re	8r	8r	16cc#X\LL
.	.	16g/	16b/	.	.	.	.	.	.	.	.	.	.	.	.	16b\
8AA/J	.	16f#/	16a/	.	.	.	.	.	.	.	.	.	.	16a\LL	16a\LL	16a\
.	.	16e/JJ	16g/JJ	.	.	.	.	.	.	.	.	.	.	16a\JJ	16a\JJ	16g\JJ
!	!	!	!LO:LB:g=original	!	!	!	!	!	!	!	!	!	!	!	!	!
4D\	.	16d/LL	16f#/LL	.	4D\	-biſ	nobis	4d\	-biſ	-biſ	4ff#X\	-bis	no-	4d/	4a\	4f#/
.	.	16d/	16d/	.	.	.	.	.	.	.	.	.	.	.	.	.
.	.	16f#/	16f#/	.	.	.	.	.	.	.	.	.	.	.	.	.
.	.	16a/JJ	16a/JJ	.	.	.	.	.	.	.	.	.	.	.	.	.
4r	.	4dd\	4dd\	.	4r	.	.	4r	.	.	4r	.	.	4r	4r	4r
=34	=34	=34	=34	=34	=34	=34	=34	=34	=34	=34	=34	=34	=34	=34	=34	=34
8D\L	.	4ccn\	4aa\	.	2D\	O-	mi-	4F#/	O-	mi-	(4a\	o-	-bis	4d/	4a\	4aa\
8D\	.	.	.	.	.	.	.	.	.	.	.	.	.	.	.	.
8D\	.	4a/	4ccn\	.	.	.	.	4A/	.	.	4ccn\)	.	mi-	4a\	4cc\	4ccn\
8D\J	.	.	.	.	.	.	.	.	.	.	.	.	.	.	.	.
.	.	.	.	.	.	.	.	8qqA/	.	.	.	.	.	.	.	.
4GG/	.	16g\LL	16b\LL	.	4G\	-ra	-se-	4G/	-ra	-se-	4b\	-ra	-se-	4g\	4b\	16b\LL
.	.	16g\	16g\	.	.	.	.	.	.	.	.	.	.	.	.	16g\
.	.	16b\	16b\	.	.	.	.	.	.	.	.	.	.	.	.	16b\
.	.	16dd\JJ	16dd\JJ	.	.	.	.	.	.	.	.	.	.	.	.	16dd\JJ
4r	.	4gg\	4gg\	.	4r	.	.	4r	.	.	4r	.	.	4r	4r	4gg\
!	!	!	!	!	!	!	!	!	!	!	!	!	!	!	!	!
=35	=35	=35	=35	=35	=35	=35	=35	=35	=35	=35	=35	=35	=35	=35	=35	=35
8D\L	.	8cc\L	8aa\L	.	2D\	o-	-re-	4F#/	O-	-re-	(4a\	o-	-re-	4d/	4a\	8aa\L
8D\	.	8a\J	8cc\J	.	.	.	.	.	.	.	.	.	.	.	.	8cc\J
8D\	.	4aT\	4ccT\	.	.	.	.	4A/	.	.	4cc\)	.	.	4a\	4cc\	4ccT\
8D\J	.	.	.	.	.	.	.	.	.	.	.	.	.	.	.	.
.	.	.	.	.	.	.	.	8qqA/	.	.	.	.	.	.	.	.
!	!	!	!	!	!	!	!	!	!	!	!	!	!	!	!	!LO:LB:g=original
4GG/	.	16g\LL	16b\LL	.	4G\	-ra	-re	4G/	-ra	-re	4b\	-ra	-re	4g\	4b\	16b\LL
.	.	16g\	16g\	.	.	.	.	.	.	.	.	.	.	.	.	16g\
.	.	16b\	16b\	.	.	.	.	.	.	.	.	.	.	.	.	16b\
.	.	16dd\JJ	16dd\JJ	.	.	.	.	.	.	.	.	.	.	.	.	16dd\JJ
4r	.	4gg\	4gg\	.	4r	.	.	4r	.	.	4r	.	.	4r	4r	4gg\
!	!	!LO:LB:g=original	!	!	!	!	!	!	!	!	!	!	!	!	!LO:LB:g=original	!
=36	=36	=36	=36	=36	=36	=36	=36	=36	=36	=36	=36	=36	=36	=36	=36	=36
!	!	!	!	!	!	!	!	!	!	!	!	!	!	!	!	!
8C/L	.	8g/L	16ee\LL	.	4c\	O-	no-	4G/	O-	mi-	4ee\	o-	no-	4cc\	4ee\	16ee\LL
.	.	.	16cc\	.	.	.	.	.	.	.	.	.	.	.	.	16cc\
8c\	.	8g/	16gg\	.	.	.	.	.	.	.	.	.	.	.	.	16gg\
.	.	.	16ee\JJ	.	.	.	.	.	.	.	.	.	.	.	.	16ee\JJ
8B\	.	8g/	16dd\LL	.	8B\	-ra	.	8G/	-ra	.	8dd\	-ra	.	8b\L	8dd\L	16dd\LL
.	.	.	16b\	.	.	.	.	.	.	.	.	.	.	.	.	16b\
8c\J	.	8e/J	16cc\	.	8c\	pro	.	8A/	pro	.	8cc\	pro	.	8a\J	8cc\J	16cc\
.	.	.	16a\JJ	.	.	.	.	.	.	.	.	.	.	.	.	16a\JJ
!	!	!	!	!	!LO:LB:g=original	!	!	!	!	!	!	!	!	!	!	!
4d\	.	4B/	4g/	.	4d\	no-	.	4G/	no-	-se-	4b\	no-	.	4g\	4b\	4g/
4D\	.	4cT/	4aT/	.	4D\	-biſ	-bis	4F#/	-biſ	-re-	4a\	-bi[s]	bis	4d/	4a\	4aT/
!LO:LB:g=original	!	!	!	!	!	!	!	!	!	!	!	!	!	!	!	!
=37	=37	=37	=37	=37	=37	=37	=37	=37	=37	=37	=37	=37	=37	=37	=37	=37
8D\L	.	4cc\	4aa\	.	2D\	o-	mi-	4F#/	O-	-re	(4a\	o-	mi-	4d/	4a\	4aa\
8D\	.	.	.	.	.	.	.	.	.	.	.	.	.	.	.	.
8D\	.	4a\	4ccT\	.	.	.	.	4A/	.	.	4cc\)	.	.	4a\	4cc\	4ccT\
8D\J	.	.	.	.	.	.	.	.	.	.	.	.	.	.	.	.
.	.	.	.	.	.	.	.	8qqA/	.	.	.	.	.	.	.	.
4GG/	.	16g\LL	16b\LL	.	4G\	-ra	-se-	4G/	-ra	no-	4b\	-ra	-se-	4g\	4b\	16b\LL
.	.	16g\	16g\	.	.	.	.	.	.	.	.	.	.	.	.	16g\
.	.	16b\	16b\	.	.	.	.	.	.	.	.	.	.	.	.	16b\
.	.	16dd\JJ	16dd\JJ	.	.	.	.	.	.	.	.	.	.	.	.	16dd\JJ
4r	.	4gg\	4gg\	.	4r	.	.	4r	.	.	4r	.	.	4r	4r	4gg\
=38	=38	=38	=38	=38	=38	=38	=38	=38	=38	=38	=38	=38	=38	=38	=38	=38
8D\L	.	8cc\L	8aa\L	.	2D\	o-	-re-	4F#/	O-	-biſ	(4a\	o-	-re-	4d/	4a\	8aa\L
8D\	.	8a\J	8cc\J	.	.	.	.	.	.	.	.	.	.	.	.	8cc\J
8D\	.	4a\	4ccT\	.	.	.	.	4A/	.	no-	4cc\)	.	.	4a\	4cc\	4ccT\
8D\J	.	.	.	.	.	.	.	.	.	.	.	.	.	.	.	.
.	.	.	.	.	.	.	.	8qqA/	.	.	.	.	.	.	.	.
4GG/	.	16g\LL	16b\LL	.	4G\	-ra	-re	4G/	-ra	-biſ	4b\	-ra	-re	4g\	4b\	16b\LL
.	.	16g\	16g\	.	.	.	.	.	.	.	.	.	.	.	.	16g\
.	.	16b\	16b\	.	.	.	.	.	.	.	.	.	.	.	.	16b\
.	.	16dd\JJ	16dd\JJ	.	.	.	.	.	.	.	.	.	.	.	.	16dd\JJ
4r	.	4gg\	4gg\	.	4r	.	.	4r	.	.	4r	.	.	4r	4r	4gg\
!	!	!	!	!	!	!	!	!	!	!	!	!	!	!LO:LB:g=original	!	!
=39	=39	=39	=39	=39	=39	=39	=39	=39	=39	=39	=39	=39	=39	=39	=39	=39
!	!	!	!	!	!	!	!	!	!	!	!	!	!	!	!	!
8C/L	.	8g/L	16ee\LL	.	4c\	o-	no-	4G/	O-	no-	4ee\	o-	no-	4cc\	4ee\	16ee\LL
.	.	.	16cc\	.	.	.	.	.	.	.	.	.	.	.	.	16cc\
8c\	.	8g/	16gg\	.	.	.	.	.	.	.	.	.	.	.	.	16gg\
.	.	.	16ee\JJ	.	.	.	.	.	.	.	.	.	.	.	.	16ee\JJ
8B\	.	8g/	16dd\LL	.	8B\	-ra	.	8G/	-ra	.	8dd\	-ra	.	8b\L	8dd\L	16dd\LL
.	.	.	16b\	.	.	.	.	.	.	.	.	.	.	.	.	16b\
8c\J	.	8e/J	16cc\	.	8c\	pro	.	8A/	pro	.	8cc\	pro	.	8a\J	8cc\J	16cc\
.	.	.	16a\JJ	.	.	.	.	.	.	.	.	.	.	.	.	16a\JJ
4d\	.	4B/	4g/	.	4d\	no-	.	4G/	no-	.	4b\	no-	.	4g\	4b\	4g/
4D\	.	4cT/	4aT/	.	4D\	.	.	4F#/	.	.	4a\	.	.	4d/	4aT\	4aT/
=40	=40	=40	=40	=40	=40	=40	=40	=40	=40	=40	=40	=40	=40	=40	=40	=40
!	!	!	!	!	!	!	!	!	!	!	!	!	!	!	!	!LO:TX:t=P:problem=mixed beam
8GG/L	.	8B/L	8g/L	.	4G\	-biſ	-bis	4G/	-biſ	-biſ	4g;\	-biſ	-bis	8B/L	8g\L	8g/L
8GG/	.	8B/	8d/	.	.	.	.	.	.	.	.	.	.	8B/	8g\	8dd\
8GG/	.	8B/	8d/	.	4r	.	.	4r	.	.	4r	.	.	8B/	8g\	8dd\
8GG/J	.	8G/J	8B/J	.	.	.	.	.	.	.	.	.	.	8B/J	8g\J	8b\J
4GG/	.	4G/	4B/	.	2r	.	.	2r	.	.	2r	.	.	4B/	4g\	4b\
!	!	!LO:TX:b:t=Sequitur Rosa.	!	!	!	!	!	!	!	!	!	!	!	!	!	!
4r	.	4r	4r	.	.	.	.	.	.	.	.	.	.	4r	4r	4r
==	==	==	==	==	==	==	==	==	==	==	==	==	==	==	==	==
*-	*-	*-	*-	*-	*-	*-	*-	*-	*-	*-	*-	*-	*-	*-	*-	*-
!!!system-decoration: s1[(s2,s3)][(s4,s5,s6)][(s7,s8)]s9
!!!ENC: Krzysztof Stępień
!!!END: 2020-12-01
!!!ENC: Natalia Wrzos
!!!END: 2022-03-06
